X: 26194
T: McMahon's Fancy
R: reel
M: 4/4
K: Gmajor
|:G2 B/A/G dGgG|G2 eG dBAB|G2 Bd dega|1 bage dBAB:|2 bage dGBd||
|:eeeB ddBd|eBge dBAd|eB B/c/B dega|1 bage dGBd:|2 bage dBAB||

